dist/assets/link_image.svg

<svg width="40" height="40" viewBox="0 0 40 40" fill="none" xmlns="http://www.w3.org/2000/svg">
<g id="Frame 1000009100">
<rect width="40" height="40" rx="8" fill="#E5F1FC"/>
<g id="link">
<mask id="mask0_0_533" style="mask-type:alpha" maskUnits="userSpaceOnUse" x="10" y="10" width="20" height="20">
<rect id="Bounding box" x="10" y="10" width="20" height="20" fill="#D9D9D9"/>
</mask>
<g mask="url(#mask0_0_533)">
<path id="link_2" d="M19.0921 24.3362H15.8335C14.6339 24.3362 13.6113 23.9135 12.7657 23.068C11.9202 22.2225 11.4974 21.2 11.4974 20.0005C11.4974 18.801 11.9202 17.7784 12.7657 16.9326C13.6113 16.0869 14.6339 15.6641 15.8335 15.6641H19.0921V17.5599H15.8356C15.1572 17.5599 14.5805 17.7972 14.1056 18.2716C13.6307 18.7461 13.3933 19.3223 13.3933 20.0001C13.3933 20.678 13.6307 21.2541 14.1056 21.7286C14.5805 22.2031 15.1572 22.4403 15.8356 22.4403H19.0921V24.3362ZM16.5522 20.8733V19.1269H23.4481V20.8733H16.5522ZM20.9082 24.3362V22.4403H24.1647C24.8431 22.4403 25.4198 22.2031 25.8947 21.7286C26.3696 21.2541 26.607 20.678 26.607 20.0001C26.607 19.3223 26.3696 18.7461 25.8947 18.2716C25.4198 17.7972 24.8431 17.5599 24.1647 17.5599H20.9082V15.6641H24.1668C25.3665 15.6641 26.3891 16.0868 27.2346 16.9322C28.0801 17.7777 28.5029 18.8002 28.5029 19.9997C28.5029 21.1993 28.0801 22.2219 27.2346 23.0676C26.3891 23.9133 25.3665 24.3362 24.1668 24.3362H20.9082Z" fill="#0073E6"/>
</g>
</g>
</g>
</svg>

<svg xmlns="http://www.w3.org/2000/svg" width="40" height="40" fill="none"><rect width="40" height="40" fill="#E5F1FC" rx="8"/><mask id="a" width="20" height="20" x="10" y="10" maskUnits="userSpaceOnUse" style="mask-type:alpha"><path fill="#D9D9D9" d="M10 10h20v20H10z"/></mask><g mask="url(#a)"><path fill="#0073E6" d="M19.092 24.336h-3.258c-1.2 0-2.223-.422-3.068-1.268-.846-.846-1.269-1.868-1.269-3.068 0-1.199.423-2.222 1.269-3.067.845-.846 1.868-1.269 3.068-1.269h3.258v1.896h-3.256c-.679 0-1.255.237-1.73.712A2.352 2.352 0 0 0 13.393 20c0 .678.238 1.254.713 1.729a2.356 2.356 0 0 0 1.73.711h3.256v1.896Zm-2.54-3.463v-1.746h6.896v1.746h-6.896Zm4.356 3.463V22.44h3.257c.678 0 1.255-.237 1.73-.711.475-.475.712-1.051.712-1.729 0-.678-.237-1.254-.712-1.728a2.357 2.357 0 0 0-1.73-.712h-3.257v-1.896h3.259c1.2 0 2.222.423 3.068 1.268.845.846 1.268 1.868 1.268 3.068s-.423 2.222-1.268 3.068c-.846.845-1.869 1.268-3.068 1.268h-3.259Z"/></g></svg>
